nextcloudappstore/core/static/assets/img/icons/categories/text-box-edit-white.svg

<svg width="20" height="20" fill="none" style="-webkit-print-color-adjust:exact" version="1.1" viewBox="0 -0 20 20" xmlns="http://www.w3.org/2000/svg"><g rx="0" ry="0" fill="#000"><g class="fills"><path rx="0" ry="0" d="m8.333 15.925 1.759-1.758h-4.259v-1.667h5.834v0.1l1.766-1.767h-7.6v-1.666h8.334v0.933l1.033-1.025c0.4-0.4 0.925-0.625 1.5-0.625 0.275 0 0.55 0.058 0.8 0.158v-4.441c0-0.925-0.75-1.667-1.667-1.667h-11.666c-0.925 0-1.667 0.742-1.667 1.667v11.666c0 0.925 0.75 1.667 1.667 1.667h4.166v-1.575zm-2.5-10.092h8.334v1.667h-8.334v-1.667zm12.25 6.125-0.833 0.834-1.708-1.709 0.833-0.833c0.175-0.175 0.467-0.175 0.642 0l1.066 1.067c0.175 0.175 0.175 0.466 0 0.641zm-8.083 4.659 5.05-5.05 1.708 1.708-5.041 5.058h-1.717v-1.716z" fill="#fff"/></g></g></svg>

<svg xmlns:xlink="http://www.w3.org/1999/xlink" width="20" xmlns="http://www.w3.org/2000/svg" height="20" id="screenshot-db15cf86-6f9e-8025-8002-bbab9ed6fdde" viewBox="0 -0 20 20" style="-webkit-print-color-adjust: exact;" fill="none" version="1.1"><g id="shape-db15cf86-6f9e-8025-8002-bbab9ed6fdde" rx="0" ry="0" style="fill: rgb(0, 0, 0);"><g id="shape-db15cf86-6f9e-8025-8002-bbab9ed6fde0"><g class="fills" id="fills-db15cf86-6f9e-8025-8002-bbab9ed6fde0"><path rx="0" ry="0" d="M8.333,15.925L10.092,14.167L5.833,14.167L5.833,12.500L11.667,12.500L11.667,12.600L13.433,10.833L5.833,10.833L5.833,9.167L14.167,9.167L14.167,10.100L15.200,9.075C15.600,8.675,16.125,8.450,16.700,8.450C16.975,8.450,17.250,8.508,17.500,8.608L17.500,4.167C17.500,3.242,16.750,2.500,15.833,2.500L4.167,2.500C3.242,2.500,2.500,3.242,2.500,4.167L2.500,15.833C2.500,16.758,3.250,17.500,4.167,17.500L8.333,17.500L8.333,15.925ZM5.833,5.833L14.167,5.833L14.167,7.500L5.833,7.500L5.833,5.833ZM18.083,11.958L17.250,12.792L15.542,11.083L16.375,10.250C16.550,10.075,16.842,10.075,17.017,10.250L18.083,11.317C18.258,11.492,18.258,11.783,18.083,11.958ZM10.000,16.617L15.050,11.567L16.758,13.275L11.717,18.333L10.000,18.333L10.000,16.617ZZ" style="fill: rgb(255, 255, 255); fill-opacity: 1;"/></g></g></g></svg>
